flaticon/stationery/paint-palette-2.svg

<svg xmlns="http://www.w3.org/2000/svg" width="32" height="32" viewBox="0 0 24 24">
    <path d="M16.238281 5.523438C16.238281 4.085938 15.070312 2.917969 13.632812 2.917969 12.191406 2.917969 11.023438 4.085938 11.023438 5.523438 11.023438 6.964844 12.191406 8.132812 13.632812 8.132812 15.070312 8.132812 16.238281 6.964844 16.238281 5.523438zM13.632812 7.105469C12.757812 7.105469 12.050781 6.398438 12.050781 5.523438 12.050781 4.652344 12.757812 3.945312 13.632812 3.945312 14.503906 3.945312 15.210938 4.652344 15.210938 5.523438 15.210938 6.398438 14.503906 7.105469 13.632812 7.105469zM18.472656 7.757812C17.035156 7.757812 15.867188 8.925781 15.867188 10.367188 15.867188 11.804688 17.035156 12.972656 18.472656 12.972656 19.914062 12.972656 21.082031 11.804688 21.082031 10.367188 21.082031 8.925781 19.914062 7.757812 18.472656 7.757812zM18.472656 11.945312C17.601562 11.945312 16.894531 11.238281 16.894531 10.367188 16.894531 9.492188 17.601562 8.785156 18.472656 8.785156 19.347656 8.785156 20.054688 9.492188 20.054688 10.367188 20.054688 11.238281 19.347656 11.945312 18.472656 11.945312zM17.117188 15.066406C15.675781 15.066406 14.507812 16.234375 14.507812 17.671875 14.507812 19.113281 15.675781 20.277344 17.117188 20.277344 18.554688 20.277344 19.722656 19.113281 19.722656 17.671875 19.722656 16.234375 18.554688 15.066406 17.117188 15.066406zM17.117188 19.25C16.242188 19.25 15.535156 18.542969 15.535156 17.671875 15.535156 16.800781 16.242188 16.09375 17.117188 16.09375 17.988281 16.09375 18.695312 16.800781 18.695312 17.671875 18.695312 18.542969 17.988281 19.25 17.117188 19.25zM17.117188 19.25"/>
    <path d="M 20.363281 3.636719 C 18.015625 1.292969 14.898438 0 11.578125 0 C 8.261719 0 5.144531 1.292969 2.796875 3.636719 C 1.828125 4.605469 1.035156 5.714844 0.429688 6.9375 C -0.199219 8.21875 -0.136719 9.722656 0.601562 10.96875 C 1.367188 12.253906 2.707031 13.058594 4.195312 13.121094 L 7.550781 13.261719 C 9.265625 13.332031 10.667969 14.730469 10.738281 16.445312 L 10.878906 19.800781 C 10.976562 22.117188 12.921875 24 15.214844 24 C 15.855469 24 16.476562 23.855469 17.0625 23.566406 C 18.285156 22.960938 19.394531 22.167969 20.363281 21.199219 C 22.707031 18.855469 24 15.734375 24 12.417969 C 24 9.101562 22.707031 5.984375 20.363281 3.636719 Z M 19.640625 20.476562 C 18.75 21.367188 17.730469 22.097656 16.609375 22.648438 C 16.167969 22.867188 15.695312 22.980469 15.214844 22.980469 C 13.460938 22.976562 11.972656 21.535156 11.898438 19.757812 L 11.757812 16.402344 C 11.664062 14.164062 9.835938 12.332031 7.59375 12.238281 L 4.238281 12.097656 C 3.097656 12.050781 2.066406 11.433594 1.480469 10.445312 C 0.910156 9.484375 0.863281 8.371094 1.347656 7.386719 C 1.898438 6.265625 2.628906 5.246094 3.519531 4.359375 C 5.671875 2.207031 8.535156 1.019531 11.578125 1.019531 C 14.625 1.019531 17.488281 2.207031 19.640625 4.359375 C 21.792969 6.511719 22.980469 9.375 22.980469 12.417969 C 22.980469 15.464844 21.792969 18.324219 19.640625 20.476562 Z M 19.640625 20.476562"/>
    <path d="M 6.324219 4.277344 C 4.886719 4.277344 3.71875 5.441406 3.71875 6.882812 C 3.71875 8.324219 4.886719 9.488281 6.324219 9.488281 C 7.765625 9.488281 8.933594 8.324219 8.933594 6.882812 C 8.933594 5.441406 7.765625 4.277344 6.324219 4.277344 Z M 6.324219 8.460938 C 5.453125 8.460938 4.746094 7.753906 4.746094 6.882812 C 4.746094 6.011719 5.453125 5.304688 6.324219 5.304688 C 7.199219 5.304688 7.90625 6.011719 7.90625 6.882812 C 7.90625 7.753906 7.199219 8.460938 6.324219 8.460938 Z M 6.324219 8.460938"/>
</svg>

<svg xmlns="http://www.w3.org/2000/svg" width="32" height="32" viewBox="0 0 24 24">
    <path d="M16.238 5.523a2.607 2.607 0 1 0-5.214.004 2.607 2.607 0 0 0 5.214-.004zm-2.605 1.582a1.58 1.58 0 1 1-.003-3.16 1.58 1.58 0 0 1 .003 3.16zm0 0M18.473 7.758a2.608 2.608 0 1 0 .005 5.216 2.608 2.608 0 0 0-.005-5.216zm0 4.187a1.58 1.58 0 1 1 1.582-1.578 1.58 1.58 0 0 1-1.582 1.578zm0 0M17.117 15.066a2.606 2.606 0 0 0 0 5.21 2.605 2.605 0 1 0 0-5.21zm0 4.184a1.58 1.58 0 0 1-1.582-1.578 1.58 1.58 0 0 1 3.16 0c0 .871-.707 1.578-1.578 1.578zm0 0"/>
    <path d="M20.363 3.637A12.351 12.351 0 0 0 11.578 0a12.349 12.349 0 0 0-8.781 3.637 12.492 12.492 0 0 0-2.367 3.3 4.225 4.225 0 0 0 .172 4.032 4.385 4.385 0 0 0 3.593 2.152l3.356.14a3.345 3.345 0 0 1 3.187 3.184l.14 3.356C10.978 22.117 12.923 24 15.216 24a4.14 4.14 0 0 0 1.848-.434 12.492 12.492 0 0 0 3.3-2.367A12.342 12.342 0 0 0 24 12.418c0-3.316-1.293-6.434-3.637-8.781zm-.722 16.84c-.891.89-1.91 1.62-3.032 2.171a3.13 3.13 0 0 1-1.394.332c-1.754-.003-3.242-1.445-3.317-3.222l-.14-3.356c-.094-2.238-1.922-4.07-4.164-4.164l-3.356-.14a3.358 3.358 0 0 1-2.758-1.653c-.57-.96-.617-2.074-.132-3.058A11.288 11.288 0 0 1 3.52 4.359a11.326 11.326 0 0 1 8.058-3.34c3.047 0 5.91 1.188 8.063 3.34a11.326 11.326 0 0 1 3.34 8.059 11.32 11.32 0 0 1-3.34 8.059zm0 0"/>
    <path d="M6.324 4.277a2.605 2.605 0 1 0 0 5.211 2.606 2.606 0 1 0 0-5.21zm0 4.184a1.579 1.579 0 0 1 0-3.156 1.58 1.58 0 0 1 1.582 1.578A1.58 1.58 0 0 1 6.324 8.46zm0 0"/>
</svg>
